tools/download-figma-icons/icons/outlined-medium/gas-meter.svg

<svg width="24" height="24" viewBox="0 0 24 24" fill="none" xmlns="http://www.w3.org/2000/svg">
<path fill-rule="evenodd" clip-rule="evenodd" d="M3.30232 17.8754C5.19231 20.6639 8.3858 22.4999 12 22.4999C15.6143 22.4999 18.8077 20.6639 20.6977 17.8754H3.30232ZM22.5 11.9999C22.5 6.20997 17.79 1.49999 12 1.49999C6.21006 1.49999 1.50008 6.20997 1.50008 11.9999C1.50008 13.5629 1.85258 15.0419 2.46758 16.3754H21.5325C22.1475 15.0419 22.5 13.5629 22.5 11.9999ZM24 11.9999C24 13.9297 23.5313 15.7484 22.7183 17.3654C22.7025 17.4119 22.68 17.4524 22.656 17.4944C20.658 21.3524 16.6365 23.9999 12.0001 23.9999C7.36358 23.9999 3.34211 21.3524 1.34412 17.4944C1.32012 17.4524 1.29762 17.4119 1.28187 17.3654C0.46887 15.7484 0.00012207 13.9297 0.00012207 11.9999C0.00012207 5.38347 5.38359 0 12.0001 0C18.6165 0 24 5.38347 24 11.9999ZM12.9975 12.015C12.981 11.5987 12.5655 10.2488 12 8.63626C11.4345 10.2503 11.019 11.6017 11.0018 12.0232C11.0025 12.5655 11.4503 13.0125 12 13.0125C12.5498 13.0125 12.9975 12.5655 12.9975 12.015ZM14.4975 12.015C14.4975 13.395 13.3793 14.5125 12 14.5125C10.6208 14.5125 9.50255 13.395 9.50255 12.015C9.50255 10.6358 12 4.3568 12 4.3568C12 4.3568 14.4975 10.6358 14.4975 12.015ZM18.6771 11.9999H20.1771C20.1771 8.7637 18.2638 5.82672 15.3036 4.51797L14.6969 5.88971C17.1148 6.95846 18.6771 9.35695 18.6771 11.9999ZM9.30276 5.88971C6.88477 6.95846 5.32253 9.3577 5.32253 11.9999H3.82253C3.82253 8.7637 5.73577 5.82672 8.69676 4.51797L9.30276 5.88971Z" fill="black"/>
</svg>

<svg xmlns="http://www.w3.org/2000/svg" width="24" height="24" fill="none" viewBox="0 0 24 24"><path fill="currentColor" fill-rule="evenodd" d="M3.302 17.875A10.5 10.5 0 0 0 12 22.5c3.614 0 6.808-1.836 8.698-4.625zM22.5 12c0-5.79-4.71-10.5-10.5-10.5S1.5 6.21 1.5 12c0 1.563.353 3.042.968 4.375h19.065c.614-1.333.967-2.812.967-4.375m1.5 0c0 1.93-.469 3.748-1.282 5.365a1 1 0 0 1-.062.13C20.658 21.351 16.636 24 12 24s-8.658-2.648-10.656-6.506a1 1 0 0 1-.062-.129A11.9 11.9 0 0 1 0 12C0 5.383 5.384 0 12 0s12 5.383 12 12m-11.002.015c-.017-.416-.432-1.766-.998-3.379-.566 1.614-.981 2.966-.998 3.387a.998.998 0 0 0 1.995-.008m1.5 0a2.497 2.497 0 1 1-4.995 0c0-1.38 2.497-7.658 2.497-7.658s2.498 6.279 2.498 7.658m4.18-.015h1.5a8.19 8.19 0 0 0-4.874-7.482l-.607 1.372a6.69 6.69 0 0 1 3.98 6.11M9.302 5.89A6.69 6.69 0 0 0 5.323 12h-1.5a8.19 8.19 0 0 1 4.874-7.482z" clip-rule="evenodd"/></svg>
